pwa/public/bubbles4.svg

<svg width="68" height="661" viewBox="0 0 68 661" fill="none" xmlns="http://www.w3.org/2000/svg">
<circle cx="54.1345" cy="508.67" r="12.4968" transform="rotate(179.362 54.1345 508.67)" fill="white" fill-opacity="0.48"/>
<circle cx="49.0536" cy="453.186" r="8.03365" transform="rotate(179.362 49.0536 453.186)" fill="white" fill-opacity="0.48"/>
<circle cx="45.7045" cy="152.205" r="8.03365" transform="rotate(179.362 45.7045 152.205)" fill="white" fill-opacity="0.48"/>
<path d="M32.8616 378.582L32.8617 378.571L32.8617 378.566C32.9574 370.143 39.3672 361.902 49.5302 361.612C57.9276 361.375 66.187 367.957 66.5532 378.023L66.5532 378.024C66.9161 387.945 58.4578 395.063 50.0127 395.206C41.5667 395.348 32.7565 388.418 32.8616 378.582ZM56.4092 372.056C54.4826 370.68 51.9739 369.941 49.4507 370.001L40.2477 378.365L39.2478 378.348C39.2478 378.348 39.2478 378.348 39.2478 378.348C39.2047 380.915 40.6427 383.011 42.6162 384.414C44.5855 385.814 47.174 386.598 49.7029 386.561C52.2272 386.523 54.7742 385.673 56.6873 384.219C58.6068 382.759 59.9603 380.623 59.8501 378.052L59.85 378.05C59.7348 375.504 58.3477 373.44 56.4092 372.056Z" stroke="white" stroke-width="2"/>
<path d="M19.8755 227.717L19.8757 227.706L19.8756 227.701C19.9714 219.278 26.3812 211.037 36.5442 210.747C44.9415 210.51 53.2009 217.092 53.5671 227.159L53.5671 227.159C53.9301 237.081 45.4717 244.198 37.0266 244.341C28.5806 244.483 19.7704 237.553 19.8755 227.717ZM43.4231 221.191C41.4965 219.816 38.9878 219.076 36.4646 219.136L27.2616 227.5L26.2617 227.483C26.2617 227.483 26.2617 227.483 26.2617 227.483C26.2186 230.05 27.6566 232.147 29.6301 233.55C31.5994 234.95 34.1879 235.733 36.7168 235.696C39.2412 235.659 41.7881 234.809 43.7012 233.354C45.6207 231.894 46.9742 229.758 46.864 227.188L46.8639 227.185C46.7488 224.64 45.3616 222.575 43.4231 221.191Z" stroke="white" stroke-width="2"/>
<path d="M19.8148 606.162C25.384 606.196 28.9803 610.638 29.1328 615.234C29.3088 620.648 24.5601 624.527 19.9519 624.554C15.3437 624.582 10.6111 620.803 10.6904 615.348C10.7691 609.845 15.206 606.137 19.8149 606.167L19.8148 606.162Z" fill="white"/>
<path d="M22.1704 69.1026C27.7396 69.1364 31.3359 73.5787 31.4884 78.1743C31.6644 83.5885 26.9157 87.4676 22.3075 87.4949C17.6993 87.5223 12.9667 83.7439 13.046 78.2885C13.1247 72.7853 17.5616 69.0772 22.1705 69.1073L22.1704 69.1026Z" fill="white"/>
<path d="M29.3494 126.146C32.7628 126.167 34.9669 128.889 35.0604 131.706C35.1683 135.024 32.2578 137.402 29.4334 137.419C26.609 137.436 23.7084 135.12 23.757 131.776C23.8052 128.403 26.5247 126.131 29.3494 126.149L29.3494 126.146Z" fill="white"/>
<circle cx="36.7407" cy="282.592" r="29.7543" transform="rotate(179.362 36.7407 282.592)" fill="white" fill-opacity="0.48"/>
<circle cx="17.7493" cy="421.011" r="17.555" transform="rotate(179.362 17.7493 421.011)" fill="white" fill-opacity="0.48"/>
<circle cx="18.0985" cy="184.993" r="17.555" transform="rotate(179.362 18.0985 184.993)" fill="white" fill-opacity="0.48"/>
<circle cx="40.2174" cy="568.292" r="8.03365" transform="rotate(179.362 40.2174 568.292)" fill="white" fill-opacity="0.48"/>
<circle cx="32.7377" cy="591.377" r="8.03365" transform="rotate(179.362 32.7377 591.377)" fill="white" fill-opacity="0.48"/>
<circle cx="19.3826" cy="541.059" r="12.4968" transform="rotate(179.362 19.3826 541.059)" fill="white" fill-opacity="0.48"/>
<circle cx="29.4297" cy="106.92" r="12.4968" transform="rotate(179.362 29.4297 106.92)" fill="white" fill-opacity="0.48"/>
<path d="M19.4947 353.543C27.9724 353.405 36.5086 346.267 36.1418 336.234C35.7743 326.123 27.4675 319.487 18.9909 319.73C8.76454 320.022 2.32167 328.333 2.23542 336.786C2.13074 346.745 11.017 353.681 19.4947 353.543ZM19.0666 325.742C23.8677 325.606 28.5714 329.371 28.7803 335.107C28.9888 340.795 24.1431 344.829 19.3414 344.904C14.5353 344.984 9.50871 341.051 9.56906 335.408C9.61694 330.621 13.2719 325.907 19.071 325.742L19.0666 325.742Z" fill="white"/>
<path d="M40.2923 489.32C44.7542 489.242 49.2386 484.744 49.0339 478.408C48.8286 472.022 44.4487 467.821 39.9875 467.964C34.6054 468.137 31.2241 473.378 31.1886 478.717C31.1452 485.006 35.8304 489.397 40.2923 489.32ZM40.0344 471.761C42.5612 471.681 45.0413 474.065 45.158 477.688C45.2743 481.28 42.7287 483.822 40.2015 483.864C37.672 483.908 35.0217 481.419 35.0469 477.855C35.0665 474.832 36.9847 471.859 40.0367 471.761L40.0344 471.761Z" fill="white"/>
</svg>

<svg xmlns="http://www.w3.org/2000/svg" width="68" height="661" fill="none" xmlns:v="https://vecta.io/nano"><style><![CDATA[.B{fill-opacity:.48}]]></style><g fill="#fff" class="B"><circle cx="54.135" cy="508.67" r="12.497" transform="rotate(179.362 54.135 508.67)"/><circle cx="49.054" cy="453.186" r="8.034" transform="rotate(179.362 49.054 453.186)"/><circle cx="45.705" cy="152.205" r="8.034" transform="rotate(179.362 45.705 152.205)"/></g><path d="M32.862 378.582v-.011-.005c.096-8.423 6.505-16.664 16.669-16.954 8.397-.237 16.657 6.345 17.023 16.411v.001c.363 9.921-8.095 17.039-16.54 17.182s-17.256-6.788-17.151-16.624zm23.548-6.526c-1.927-1.376-4.435-2.115-6.959-2.055l-9.203 8.364-1-.017c-.043 2.567 1.395 4.663 3.368 6.066s4.558 2.184 7.087 2.147 5.071-.888 6.984-2.342c1.919-1.46 3.273-3.596 3.163-6.167v-.002c-.115-2.546-1.502-4.61-3.441-5.994zM19.876 227.717v-.011-.005c.096-8.423 6.506-16.664 16.669-16.954 8.397-.237 16.657 6.345 17.023 16.412h0c.363 9.922-8.095 17.039-16.54 17.182s-17.256-6.788-17.151-16.624zm23.548-6.526c-1.927-1.375-4.435-2.115-6.959-2.055l-9.203 8.364-1-.017c-.043 2.567 1.395 4.664 3.368 6.067s4.558 2.183 7.087 2.146 5.071-.887 6.984-2.342c1.919-1.46 3.273-3.596 3.163-6.166v-.003c-.115-2.545-1.502-4.61-3.441-5.994z" stroke="#fff" stroke-width="2"/><g fill="#fff"><path d="M19.815 606.162c5.569.034 9.165 4.476 9.318 9.072.176 5.414-4.573 9.293-9.181 9.32s-9.341-3.751-9.261-9.206c.079-5.503 4.516-9.211 9.125-9.181v-.005zM22.17 69.103c5.569.034 9.165 4.476 9.318 9.072.176 5.414-4.573 9.293-9.181 9.321s-9.341-3.751-9.262-9.206c.079-5.503 4.516-9.211 9.125-9.181v-.005zm7.179 57.043c3.413.021 5.618 2.743 5.711 5.56.108 3.318-2.803 5.696-5.627 5.713s-5.725-2.299-5.676-5.643c.048-3.373 2.768-5.645 5.592-5.627v-.003z"/><circle cx="36.741" cy="282.592" r="29.754" transform="rotate(179.362 36.741 282.592)" class="B"/><circle cx="17.749" cy="421.011" r="17.555" transform="rotate(179.362 17.749 421.011)" class="B"/><circle cx="18.099" cy="184.993" r="17.555" transform="rotate(179.362 18.099 184.993)" class="B"/><circle cx="40.217" cy="568.292" r="8.034" transform="rotate(179.362 40.217 568.292)" class="B"/><circle cx="32.738" cy="591.377" r="8.034" transform="rotate(179.362 32.738 591.377)" class="B"/><circle cx="19.383" cy="541.059" r="12.497" transform="rotate(179.362 19.383 541.059)" class="B"/><circle cx="29.43" cy="106.92" r="12.497" transform="rotate(179.362 29.43 106.92)" class="B"/><path d="M19.495 353.543c8.478-.138 17.014-7.276 16.647-17.309-.368-10.111-8.674-16.747-17.151-16.504-10.226.292-16.669 8.603-16.755 17.056-.105 9.959 8.782 16.895 17.259 16.757zm-.428-27.801c4.801-.136 9.505 3.629 9.714 9.365.209 5.688-4.637 9.722-9.439 9.797s-9.833-3.853-9.772-9.496c.048-4.787 3.703-9.501 9.502-9.666h-.004zM40.292 489.32c4.462-.078 8.946-4.576 8.742-10.912-.205-6.386-4.585-10.587-9.046-10.444-5.382.173-8.763 5.414-8.799 10.753-.043 6.289 4.642 10.68 9.104 10.603zm-.258-17.559c2.527-.08 5.007 2.304 5.124 5.927.116 3.592-2.429 6.134-4.956 6.176s-5.18-2.445-5.155-6.009c.02-3.023 1.938-5.996 4.99-6.094h-.002z"/></g></svg>
